X: 6597
T: Caucus, The
R: reel
M: 4/4
K: Gmajor
dBBd g2gd|egdB AGAB|dBBd g2bg|abge g3~z||
bgg2 agef|geeg dega|bgg2 agbg|abge g3~a|
bgg2 agef|geeg dBGA|B2BG AGEG|GEDE G3~z:|
edgd edBd|egdB A2Bd|edgd edBd|gabg abgd|
edgd edBd|egdB A2GA|B2BG AGEG|GEDE G3~z:|

